.local/share/icons/Gruvbox-Plus-Dark/panel/24/update-high.svg

<svg xmlns="http://www.w3.org/2000/svg" width="24" height="24" version="1.1">
 <defs>
  <style id="current-color-scheme" type="text/css">
   .ColorScheme-Text { color:#ebdbb2; } .ColorScheme-Highlight { color:#458588; }
  </style>
 </defs>
 <path style="fill:currentColor" class="ColorScheme-Text" d="m 12,4 c -4.4183,0 -8,3.5817 -8,8 0,4.418 3.5817,8 8,8 4.418,0 8,-3.582 8,-8 0,-4.4183 -3.582,-8 -8,-8 z m 0,2 c 1.495771,0 2.989091,0.5601607 4.148438,1.671875 -0.370703,0.1438242 -0.713602,0.3779669 -0.976563,0.75 L 14.710938,9.076172 C 13.142097,7.6218791 10.697474,7.6462762 9.171875,9.171875 8.3909653,9.952785 8.0040093,10.976418 8.0039062,12 h 0.296875 A 0.69923716,0.5746971 1.1588047e-6 0 1 8.90625,12.861328 l -0.6503906,0.925781 -0.6523438,0.925782 a 0.69923716,0.5746971 1.1588047e-6 0 1 -1.2089844,0 L 5.7441406,13.787109 5.09375,12.861328 A 0.69923716,0.5746971 1.1588047e-6 0 1 5.4921875,12.025391 0.69923716,0.5746971 1.1588047e-6 0 1 5.6972656,12 H 6.0019531 C 6.0020237,10.464515 6.5863637,8.9292613 7.7578125,7.7578125 8.9293912,6.5862339 10.464469,6 12,6 Z m 4.962891,3.001953 a 0.69923716,0.5746971 1.1588047e-6 0 1 0.642578,0.285156 l 0.65039,0.925782 0.650391,0.925781 A 0.69923716,0.5746971 1.1588047e-6 0 1 18.507812,11.974609 0.69923716,0.5746971 1.1588047e-6 0 1 18.302734,12 h -0.304687 c -7.1e-5,1.535485 -0.584412,3.070735 -1.755859,4.242188 C 15.070609,17.413764 13.535531,18 12,18 10.505091,18 9.0125771,17.440509 7.8535156,16.330078 c 0.363732,-0.140945 0.7082551,-0.373476 0.9746094,-0.75 v -0.002 l 0.4609375,-0.654297 c 1.5688395,1.454293 4.0134635,1.429896 5.5390625,-0.0957 C 15.609035,14.047215 15.995991,13.023583 15.996094,12 H 15.699219 A 0.69923716,0.5746971 1.1588047e-6 0 1 15.09375,11.138672 l 0.650391,-0.925781 0.652343,-0.925782 a 0.69923716,0.5746971 1.1588047e-6 0 1 0.566407,-0.285156 z"/>
 <circle style="fill:currentColor" class="ColorScheme-Highlight" cx="21" cy="19" r="2"/>
</svg>

<svg width="24" height="24" version="1.1" xmlns="http://www.w3.org/2000/svg">
  <defs>
    <style id="current-color-scheme" type="text/css">.ColorScheme-Text { color:#ebdbb2; } .ColorScheme-Highlight { color:#458588; } .ColorScheme-NeutralText { color:#fe8019; } .ColorScheme-PositiveText { color:#689d6a; } .ColorScheme-NegativeText { color:#fb4934; }</style>
  </defs>
  <circle class="ColorScheme-NegativeText" cx="21" cy="19" r="2" fill="currentColor"/>
  <path class="ColorScheme-Text" d="m12 4c-4.418 0-8 3.582-8 8 0 4.418 3.582 8 8 8 4.418 0 8-3.582 8-8 0-4.418-3.582-8-8-8zm0 2c1.496 0 2.989 0.5602 4.148 1.672-0.3707 0.1438-0.7136 0.378-0.9766 0.75l-0.4609 0.6543c-1.569-1.454-4.013-1.43-5.539 0.0957-0.7809 0.7809-1.168 1.805-1.168 2.828h0.2969a0.6992 0.5747 1.159e-6 0 1 0.6055 0.8613l-0.6504 0.9258-0.6523 0.9258a0.6992 0.5747 1.159e-6 0 1-1.209 0l-1.301-1.852a0.6992 0.5747 1.159e-6 0 1 0.3984-0.8359 0.6992 0.5747 1.159e-6 0 1 0.2051-0.02539h0.3047c7.06e-5 -1.535 0.5844-3.071 1.756-4.242 1.172-1.172 2.707-1.758 4.242-1.758zm4.963 3.002a0.6992 0.5747 1.159e-6 0 1 0.6426 0.2852l1.301 1.852a0.6992 0.5747 1.159e-6 0 1-0.3984 0.8359 0.6992 0.5747 1.159e-6 0 1-0.2051 0.02539h-0.3047c-7.1e-5 1.535-0.5844 3.071-1.756 4.242-1.172 1.172-2.707 1.758-4.242 1.758-1.495 0-2.987-0.5595-4.146-1.67 0.3637-0.1409 0.7083-0.3735 0.9746-0.75v-2e-3l0.4609-0.6543c1.569 1.454 4.013 1.43 5.539-0.0957 0.7809-0.7809 1.168-1.804 1.168-2.828h-0.2969a0.6992 0.5747 1.159e-6 0 1-0.6055-0.8613l0.6504-0.9258 0.6523-0.9258a0.6992 0.5747 1.159e-6 0 1 0.5664-0.2852z" fill="currentColor"/>
</svg>
